X:2
T:Irish Mazurka, The
R:mazurka
L:1/8
C:Syracuse session setting
M:3/4
K:G
DG|&quot;G&quot;B2 BA GB|d2 dB AB|&quot;C&quot;c2 ce dc|&quot;D&quot;(3Bcd g2 DG|
&quot;G&quot;B2 BA GB|d2 dB AB|&quot;C&quot;c2 cA &quot;D&quot;FA|1 &quot;G&quot;G4:|2 &quot;G&quot;G3 g gf|]
&quot;C&quot;e2 ce ce|&quot;G&quot;d2 dB AB|&quot;D&quot;c2 cA FA|&quot;G&quot;B2 Bg gf|
&quot;C&quot;e2 ce ce|&quot;G&quot;d2 dB AB|&quot;D&quot;c2 cA FA|1 &quot;G&quot;G3 g gf:|2 &quot;G&quot;G4|]
</abc>
